images-source/features/Build.svg

<?xml version="1.0" encoding="UTF-8"?>
<svg width="91px" height="86px" viewBox="0 0 91 86" version="1.1" xmlns="http://www.w3.org/2000/svg" xmlns:xlink="http://www.w3.org/1999/xlink">
    <!-- Generator: Sketch 48.2 (47327) - http://www.bohemiancoding.com/sketch -->
    <title>Build</title>
    <desc>Created with Sketch.</desc>
    <defs></defs>
    <g id="platform" stroke="none" stroke-width="1" fill="none" fill-rule="evenodd" transform="translate(-562.000000, -2640.000000)">
        <g id="Group-13" transform="translate(-90.000000, 2381.000000)">
            <g id="Group-4" transform="translate(406.000000, 259.000000)">
                <g id="Build" transform="translate(246.000000, 0.000000)">
                    <rect id="Rectangle-2-Copy" fill="#FFFFFF" x="4.30434783" y="6.17391304" width="56.826087" height="77.3478261"></rect>
                    <g id="contract" fill-rule="nonzero">
                        <path d="M15.0350124,24.7300996 L51.9077593,24.7300996 C53.3675353,24.7300996 54.5509129,23.546722 54.5509129,22.0869461 C54.5509129,20.6271701 53.3675353,19.4437925 51.9077593,19.4437925 L15.0350124,19.4437925 C13.5752365,19.4437925 12.3918589,20.6271701 12.3918589,22.0869461 C12.3918589,23.546722 13.5752365,24.7300996 15.0350124,24.7300996 Z" id="Shape" fill="#FFAF1D"></path>
                        <path d="M15.0350124,33.8108423 L51.9077593,33.8108423 C53.3675353,33.8108423 54.5509129,32.6274647 54.5509129,31.1676888 C54.5509129,29.7079129 53.3675353,28.5245353 51.9077593,28.5245353 L15.0350124,28.5245353 C13.5752365,28.5245353 12.3918589,29.7079129 12.3918589,31.1676888 C12.3918589,32.6274647 13.5752365,33.8108423 15.0350124,33.8108423 Z" id="Shape" fill="#FFAF1D"></path>
                        <path d="M34.5411079,64.8471286 L15.0350124,64.8471286 C13.5752365,64.8471286 12.3918589,66.0305062 12.3918589,67.4902822 C12.3918589,68.9500581 13.5752365,70.1334357 15.0350124,70.1334357 L34.5407303,70.1334357 C36.0005062,70.1334357 37.1838838,68.9500581 37.1838838,67.4902822 C37.1838838,66.0305062 36.0008838,64.8471286 34.5411079,64.8471286 Z" id="Shape" fill="#FFAF1D"></path>
                        <path d="M89.4001369,5.25270124 L81.6292656,0.590178423 C81.0281369,0.229576763 80.308444,0.121962656 79.6283983,0.292257261 C78.9483527,0.462174274 78.3634606,0.895651452 78.0028589,1.49640249 L64.4740664,24.0440124 L64.4740664,8.06426141 C64.4740664,6.60448548 63.2906888,5.42110788 61.8309129,5.42110788 L2.64315353,5.42110788 C1.18337759,5.42110788 -2.84217094e-14,6.60448548 -2.84217094e-14,8.06426141 L-2.84217094e-14,82.5407759 C-2.84217094e-14,84.0005519 1.18337759,85.1839295 2.64315353,85.1839295 L61.8309129,85.1839295 C63.2906888,85.1839295 64.4740664,84.0005519 64.4740664,82.5407759 L64.4740664,51.9323029 L90.3067386,8.87910788 C91.0577718,7.62738589 90.6518589,6.00411203 89.4001369,5.25270124 Z M55.2649419,57.0060249 L50.8784398,60.6471577 L52.0270788,55.0633071 L77.3832282,12.8041909 L80.6210913,14.7469087 L55.2649419,57.0060249 Z M83.3408963,10.2139004 L80.1030332,8.27118257 L81.1761535,6.48290041 L84.4140166,8.42561826 L83.3408963,10.2139004 Z M5.28630705,79.8976224 L5.28630705,10.7074149 L59.1877593,10.7074149 L59.1877593,32.8543983 L54.5195726,40.634332 C54.5380747,40.5078382 54.5509129,40.379834 54.5509129,40.2484315 C54.5509129,38.7886556 53.3675353,37.605278 51.9077593,37.605278 L15.0350124,37.605278 C13.5752365,37.605278 12.3918589,38.7886556 12.3918589,40.2484315 C12.3918589,41.7082075 13.5752365,42.8915851 15.0350124,42.8915851 L51.9077593,42.8915851 C52.4964274,42.8915851 53.0378963,42.6967469 53.4770373,42.371639 L50.8882573,46.6860207 L15.0350124,46.6860207 C13.5752365,46.6860207 12.3918589,47.8693983 12.3918589,49.3291743 C12.3918589,50.7889502 13.5752365,51.9723278 15.0350124,51.9723278 L47.716473,51.9723278 L47.2618506,52.7297801 C47.1085477,52.9854108 46.9994232,53.2652075 46.9393859,53.5570871 L46.4851411,55.7663859 L15.0350124,55.7663859 C13.5752365,55.7663859 12.3918589,56.9497635 12.3918589,58.4095394 C12.3918589,59.8693154 13.5752365,61.0526929 15.0350124,61.0526929 L45.3976722,61.0526929 L44.1829544,66.9578755 C43.9567759,68.0570498 44.4495353,69.1792573 45.4120207,69.7569751 C45.8326598,70.0092075 46.3031411,70.1338133 46.7717344,70.1338133 C47.374751,70.1338133 47.9743693,69.9280249 48.460332,69.5243776 L58.9876349,60.786112 C59.0597552,60.7260747 59.1224357,60.6562199 59.1877593,60.5893859 L59.1877593,79.8976224 L5.28630705,79.8976224 Z" id="Shape" fill="#000000"></path>
                    </g>
                </g>
            </g>
        </g>
    </g>
</svg>

<svg width="91" height="86" viewBox="0 0 91 86" xmlns="http://www.w3.org/2000/svg"><title>Build</title><g fill="none" fill-rule="evenodd"><path fill="#FFF" d="M4.304 6.174H61.13v77.348H4.304z"/><g fill-rule="nonzero"><path d="M15.035 24.73h36.873a2.643 2.643 0 1 0 0-5.286H15.035a2.643 2.643 0 1 0 0 5.286zM15.035 33.81h36.873a2.643 2.643 0 1 0 0-5.285H15.035a2.643 2.643 0 1 0 0 5.286zM34.541 64.847H15.035a2.643 2.643 0 1 0 0 5.286h19.506a2.643 2.643 0 0 0 0-5.286z" fill="#FFAF1D"/><path d="M89.4 5.253L81.63.59a2.642 2.642 0 0 0-3.627.906L64.474 24.044V8.064a2.643 2.643 0 0 0-2.643-2.643H2.643A2.643 2.643 0 0 0 0 8.064v74.477a2.643 2.643 0 0 0 2.643 2.643h59.188a2.643 2.643 0 0 0 2.643-2.643V51.932L90.307 8.88a2.643 2.643 0 0 0-.907-3.626zM55.265 57.006l-4.387 3.641 1.15-5.584 25.355-42.259 3.238 1.943-25.356 42.259zM83.34 10.214L80.103 8.27l1.073-1.788 3.238 1.943-1.073 1.788zM5.286 79.898v-69.19h53.902v22.146l-4.668 7.78a2.643 2.643 0 0 0-2.612-3.03l-36.873.001a2.643 2.643 0 1 0 0 5.287h36.873c.588 0 1.13-.195 1.569-.52l-2.589 4.314H15.035a2.643 2.643 0 1 0 0 5.286h32.681l-.454.758a2.645 2.645 0 0 0-.323.827l-.454 2.21h-31.45a2.643 2.643 0 1 0 0 5.286h30.363l-1.215 5.905a2.643 2.643 0 0 0 4.277 2.566l10.528-8.738c.072-.06.134-.13.2-.197v19.309H5.286z" fill="#000"/></g></g></svg>
